public/assets/img/home1/icon/jquiry-icon.svg

<svg width="24" height="24" viewBox="0 0 24 24" fill="none" xmlns="http://www.w3.org/2000/svg">
<mask id="mask0_1531_62765" style="mask-type:alpha" maskUnits="userSpaceOnUse" x="0" y="0" width="24" height="24">
<rect width="24" height="24" fill="#D9D9D9"/>
</mask>
<g mask="url(#mask0_1531_62765)">
<mask id="mask1_1531_62765" style="mask-type:alpha" maskUnits="userSpaceOnUse" x="0" y="0" width="24" height="24">
<rect width="24" height="24" fill="#D9D9D9"/>
</mask>
<g mask="url(#mask1_1531_62765)">
</g>
<g clip-path="url(#clip0_1531_62765)">
<path d="M3.09021 15.5061C3.1107 15.5535 3.13387 15.5972 3.15883 15.6409C3.17041 15.6665 3.18645 15.6929 3.20071 15.7166C3.22388 15.764 3.24884 15.8095 3.2729 15.8551L3.41282 16.0957C3.43866 16.1403 3.46361 16.184 3.49302 16.2278C3.54204 16.3134 3.59997 16.3973 3.65076 16.4829C3.67393 16.5185 3.69532 16.554 3.72117 16.5895C3.8192 16.7454 3.90832 16.8748 4.00367 17.0005C4.0714 17.0944 4.13913 17.1864 4.21221 17.2784C4.23627 17.3131 4.26301 17.3477 4.28796 17.3823L4.48492 17.6265C4.50898 17.6548 4.53304 17.6876 4.55888 17.7167C4.64622 17.8243 4.7389 17.9281 4.83159 18.0339C4.83159 18.0357 4.83426 18.0375 4.83604 18.0402C4.95101 18.1878 5.07488 18.3191 5.21034 18.4357L5.21391 18.4394C5.2852 18.5141 5.3565 18.5879 5.43225 18.6608L5.52226 18.7492C5.62118 18.8439 5.7201 18.9378 5.82437 19.0289C5.82615 19.0289 5.82705 19.0307 5.82883 19.0317L5.87963 19.0772C5.97053 19.1583 6.06232 19.2385 6.15589 19.3132L6.26729 19.4089C6.34304 19.4709 6.42147 19.5292 6.499 19.5902L6.6202 19.685C6.70308 19.7488 6.79131 19.8108 6.87597 19.8727C6.90717 19.8955 6.93836 19.9183 6.97044 19.9392L6.99628 19.9602L7.24671 20.1279L7.35365 20.2008C7.48466 20.2864 7.61477 20.3666 7.74488 20.4468C7.78231 20.4659 7.81974 20.4869 7.8545 20.5088C7.95075 20.5653 8.05056 20.6227 8.1477 20.6746C8.20117 20.7056 8.25643 20.732 8.31168 20.7603C8.37852 20.7985 8.44803 20.8359 8.51933 20.8742C8.53893 20.8806 8.55497 20.8869 8.57102 20.896L8.57458 20.8924C8.60399 20.9061 8.63162 20.9206 8.66013 20.9352C8.76708 20.9899 8.87848 21.0418 8.99433 21.0929C9.01572 21.102 9.03889 21.1111 9.06206 21.1238C9.19039 21.1813 9.31872 21.2359 9.45151 21.2888C9.48181 21.2979 9.51389 21.3134 9.54508 21.3252C9.6654 21.3717 9.78927 21.4191 9.91225 21.4637L9.95681 21.4801C10.0932 21.5275 10.2277 21.5731 10.3668 21.6159C10.3988 21.625 10.4318 21.6369 10.4657 21.646C10.6074 21.6897 10.7446 21.7417 10.8881 21.769C20.0433 23.4666 22.7035 16.1686 22.7035 16.1686C20.4684 19.1301 16.5017 19.911 12.7453 19.0417C12.6063 19.0089 12.4673 18.9633 12.3265 18.9214C12.1277 18.8639 11.9307 18.8004 11.7356 18.7309L11.8203 18.7574L11.765 18.7355C11.6438 18.6936 11.5271 18.6471 11.4086 18.6006C11.3796 18.5881 11.3501 18.5765 11.3203 18.566L11.3105 18.5633C11.1795 18.5095 11.0521 18.4548 10.9255 18.3974C10.8979 18.3883 10.8747 18.3756 10.8471 18.3646C10.6972 18.2978 10.5487 18.228 10.4015 18.155L10.5245 18.2106C10.4924 18.1961 10.4609 18.1803 10.43 18.1632C10.3463 18.1232 10.2625 18.0776 10.1805 18.0348C10.1181 18.0045 10.0565 17.9723 9.99603 17.9382L10.0139 17.9473C9.91315 17.8926 9.81244 17.8334 9.71085 17.7778C9.68055 17.7559 9.64579 17.7377 9.61103 17.7177C9.46002 17.6279 9.31086 17.5349 9.16366 17.4388L9.2198 17.4734C9.18208 17.4496 9.14522 17.4244 9.10929 17.3978L9.11464 17.4015C9.01886 17.3413 8.92494 17.2781 8.83302 17.2119C8.80272 17.1919 8.7751 17.17 8.74391 17.1481C8.64789 17.0811 8.5534 17.0118 8.46051 16.9404L8.4819 16.9559C8.44447 16.9249 8.40436 16.8957 8.36426 16.8656C8.28583 16.8028 8.20652 16.7426 8.12809 16.677L8.02293 16.5914C7.91086 16.5002 7.80091 16.4063 7.69319 16.3098L7.6923 16.3089L7.38306 16.0218L7.29394 15.9362C7.22086 15.8606 7.14601 15.7886 7.07115 15.7138L6.9847 15.6227C6.89243 15.5293 6.8024 15.4336 6.71467 15.3357L6.70932 15.3293L6.69417 15.3165C6.59981 15.2106 6.50682 15.1034 6.41523 14.9949C6.39117 14.9666 6.36889 14.9366 6.34394 14.9065L6.14164 14.6559C6.05044 14.5388 5.96131 14.42 5.87428 14.2996L5.83863 14.2486C3.75503 11.3545 3.00109 7.36054 4.6685 4.08374L3.19626 5.98731C1.30248 8.75656 1.53686 12.3578 2.98505 15.2983C3.01802 15.3703 3.05456 15.4377 3.09021 15.5061Z" fill="white"/>
<path d="M9.46845 11.5167L9.45864 11.5021L9.45062 11.4912L9.46845 11.5167Z" fill="#C4C4C4"/>
<path d="M10.465 12.7121L10.5452 12.7941C10.6468 12.8943 10.751 12.9918 10.8571 13.0893L10.8705 13.1012C10.9774 13.1978 11.0977 13.2989 11.2216 13.3973L11.2403 13.4119C11.2706 13.4329 11.2965 13.4575 11.3259 13.4784C11.4506 13.5769 11.5763 13.6707 11.7073 13.7646L11.7207 13.7728C11.7759 13.8138 11.8347 13.8511 11.8971 13.8912C11.9221 13.9076 11.9506 13.9295 11.9773 13.9459C12.0718 14.0079 12.1645 14.0653 12.2598 14.1245C12.275 14.1309 12.2883 14.1391 12.3026 14.1455C12.3828 14.1956 12.4701 14.2439 12.5539 14.2876C12.5833 14.3058 12.6118 14.3195 12.6421 14.3368C12.7019 14.3669 12.7607 14.3988 12.8177 14.4298L12.8462 14.4425C12.9665 14.5027 13.0895 14.5592 13.2098 14.6147C13.2401 14.6266 13.266 14.6366 13.2918 14.6494C13.3907 14.6931 13.4914 14.735 13.5904 14.7733C13.6349 14.7888 13.6768 14.807 13.7187 14.8207C13.8096 14.8553 13.905 14.8872 13.995 14.9191L14.1197 14.9601C14.2498 15.0011 14.3817 15.0549 14.5199 15.0767C21.5897 16.2668 23.2259 10.7292 23.2259 10.7292C21.7528 12.8861 18.9019 13.914 15.8638 13.1112C15.7121 13.0721 15.5617 13.028 15.4129 12.9791L15.4636 12.9937C15.4209 12.9818 15.3834 12.9681 15.3424 12.9554C15.2498 12.9226 15.1544 12.8907 15.0644 12.857L14.9361 12.8078C14.8363 12.7668 14.7347 12.7285 14.6375 12.6848C14.6072 12.6711 14.5796 12.662 14.5564 12.6483C14.4317 12.5909 14.306 12.5344 14.1839 12.4743L14.0003 12.3768L13.8943 12.3221C13.8123 12.2783 13.7365 12.2328 13.6581 12.1863C13.6381 12.1767 13.6187 12.1657 13.6002 12.1535L13.6028 12.1544C13.5084 12.0943 13.4103 12.036 13.3194 11.9749C13.2891 11.9576 13.2615 11.9366 13.233 11.9184L13.0476 11.7954C12.9193 11.7043 12.7936 11.6068 12.6662 11.512C12.6377 11.4856 12.6101 11.4637 12.5824 11.44C11.2465 10.3711 10.1932 8.91041 9.6932 7.25652C9.16651 5.53702 9.28236 3.60884 10.1923 2.04425L9.07383 3.65532C7.7005 5.66095 7.77804 8.3418 8.84746 10.4632C9.04263 10.855 9.24048 11.1858 9.45882 11.5011C9.66201 11.7981 9.88659 12.1462 10.1575 12.385C10.2538 12.497 10.3571 12.6037 10.465 12.7121Z" fill="white"/>
<path d="M4.00816 17.006L4.00459 17.0005L3.99835 16.9923L4.00816 17.006ZM7.71372 16.328L7.72263 16.3344L7.72441 16.3371L7.71372 16.328Z" fill="#C4C4C4"/>
<path d="M14.0164 1.91137C13.2063 3.12058 13.1287 4.62229 13.6866 5.95543C14.2793 7.37149 15.4904 8.4832 16.902 9.00989C16.96 9.03267 17.0161 9.05181 17.0758 9.07368L17.1542 9.09828C17.2362 9.12471 17.3191 9.15569 17.4038 9.17483C21.3081 9.94118 22.365 7.13548 22.6493 6.72269C21.7198 8.08043 20.1611 8.40666 18.2486 7.93372C18.0823 7.89226 17.9186 7.84053 17.7585 7.77881L17.7879 7.78884C17.5886 7.71831 17.3934 7.63616 17.2032 7.5428L17.2371 7.55829C16.8717 7.37605 16.558 7.17922 16.2666 6.95323C14.5573 5.63194 13.5004 3.11602 14.6161 1.06665L14.0164 1.91137Z" fill="white"/>
</g>
</g>
<defs>
<clipPath id="clip0_1531_62765">
<rect width="24" height="22.4" fill="white" transform="translate(0 1.06665)"/>
</clipPath>
</defs>
</svg>

<svg xmlns="http://www.w3.org/2000/svg" width="24" height="24" fill="none" viewBox="0 0 24 24">
    <mask id="a" width="24" height="24" x="0" y="0" maskUnits="userSpaceOnUse" style="mask-type:alpha">
        <path fill="#d9d9d9" d="M0 0h24v24H0z"/>
    </mask>
    <g mask="url(#a)">
        <mask id="b" width="24" height="24" x="0" y="0" maskUnits="userSpaceOnUse" style="mask-type:alpha">
            <path fill="#d9d9d9" d="M0 0h24v24H0z"/>
        </mask>
        <g clip-path="url(#c)">
            <path fill="#fff" d="M3.09 15.506q.03.07.069.135.018.039.042.076.035.07.072.138l.14.24c.026.045.05.089.08.133.049.085.107.17.158.255q.033.053.07.107c.098.155.187.285.283.41q.1.14.208.278.037.053.076.104l.197.244c.024.029.048.062.074.09q.132.16.273.318 0 .003.004.006.172.222.374.396l.004.003q.105.113.218.222l.09.088q.148.143.302.28.002 0 .005.003l.05.045q.137.122.277.236l.111.096q.115.091.232.181l.121.095q.127.096.256.188.046.034.094.066l.026.021.25.168.108.073q.195.127.39.246.058.029.11.062c.097.056.197.114.294.166q.08.044.164.085l.207.114q.029.01.052.022l.004-.004.085.043q.16.082.334.158.033.013.068.03.191.087.39.166c.03.009.062.024.093.036q.181.071.367.139l.045.016q.202.071.41.136l.099.03c.141.044.279.096.422.123 9.155 1.698 11.815-5.6 11.815-5.6-2.235 2.961-6.201 3.742-9.958 2.873-.139-.033-.278-.079-.418-.12a10 10 0 0 1-.591-.191l.084.026-.055-.022q-.18-.063-.356-.134l-.089-.035-.01-.003a12 12 0 0 1-.385-.166c-.027-.009-.05-.021-.078-.032a12 12 0 0 1-.445-.21l.123.056a1 1 0 0 1-.095-.048q-.127-.062-.25-.128a3 3 0 0 1-.184-.097l.018.01c-.1-.055-.202-.115-.303-.17q-.046-.032-.1-.06-.227-.135-.447-.28l.056.035a2 2 0 0 1-.11-.075l.005.003a5 5 0 0 1-.282-.19l-.09-.063a8 8 0 0 1-.282-.208l.02.016q-.056-.046-.117-.09c-.078-.063-.157-.123-.236-.189l-.105-.086a9 9 0 0 1-.33-.281v-.001l-.31-.287-.09-.086q-.109-.111-.222-.222l-.086-.091a8 8 0 0 1-.27-.287l-.006-.007-.015-.013a16 16 0 0 1-.279-.321q-.035-.043-.071-.088l-.202-.251q-.137-.176-.268-.356l-.035-.051C3.755 11.354 3 7.36 4.669 4.084L3.196 5.987c-1.894 2.77-1.66 6.37-.21 9.311q.05.107.104.208"/>
            <path fill="#c4c4c4" d="m9.468 11.517-.01-.015-.007-.01z"/>
            <path fill="#fff" d="m10.465 12.712.08.082q.153.15.312.295l.014.012c.106.097.227.198.35.296l.02.015c.03.02.056.045.085.066q.186.147.381.287l.014.008q.083.059.176.118c.025.017.054.039.08.055q.142.092.283.178.022.011.043.021c.08.05.167.099.25.143.03.018.059.031.09.049q.089.046.175.093l.028.013q.181.089.364.172.044.017.082.034.15.067.298.124.067.026.129.048c.09.034.186.066.276.098l.125.041c.13.041.262.095.4.117 7.07 1.19 8.706-4.348 8.706-4.348-1.473 2.157-4.324 3.185-7.362 2.382a7 7 0 0 1-.451-.132l.05.015q-.062-.019-.12-.039c-.093-.032-.189-.064-.279-.098l-.128-.05q-.151-.059-.299-.122c-.03-.014-.057-.023-.08-.037q-.189-.085-.373-.174L14 12.377l-.106-.055c-.082-.044-.158-.09-.236-.136a1 1 0 0 1-.058-.033l.003.001c-.095-.06-.193-.118-.284-.18q-.045-.026-.086-.056l-.185-.123c-.129-.09-.254-.188-.382-.283q-.042-.038-.084-.072c-1.336-1.069-2.389-2.53-2.889-4.183-.526-1.72-.41-3.648.5-5.213l-1.12 1.611C7.7 5.661 7.779 8.342 8.848 10.463c.196.392.393.723.612 1.038.203.297.428.645.699.884q.145.167.307.327"/>
            <path fill="#c4c4c4" d="M4.008 17.006 4.005 17l-.007-.008zm3.706-.678.009.006.001.003z"/>
            <path fill="#fff" d="M14.016 1.911c-.81 1.21-.887 2.711-.33 4.044.593 1.416 1.804 2.528 3.216 3.055q.085.033.174.064l.078.024c.082.027.165.058.25.077 3.904.766 4.961-2.04 5.245-2.452-.93 1.357-2.488 1.684-4.4 1.21a4 4 0 0 1-.49-.154l.029.01q-.3-.106-.585-.246l.034.015a5.7 5.7 0 0 1-.97-.605c-1.71-1.321-2.767-3.837-1.65-5.886z"/>
        </g>
    </g>
    <defs>
        <clipPath id="c">
            <path fill="#fff" d="M0 1.067h24v22.4H0z"/>
        </clipPath>
    </defs>
</svg>
